media/ico/ico_audio.svg

<svg width="96" height="96" viewBox="0 0 96 96" fill="none" xmlns="http://www.w3.org/2000/svg">
<path d="M44 12L20 36H12C7.58 36 4 39.58 4 44V52C4 56.42 7.58 60 12 60H20L44 84V12ZM77.9375 14.0625L72.2812 19.7188C87.9367 35.3742 87.9362 60.63 72.2812 76.2812L77.9375 81.9375C96.6506 63.2288 96.6501 32.7751 77.9375 14.0625ZM66.625 25.375L60.9688 31.0312C70.3764 40.4389 70.3756 55.5654 60.9688 64.9688L66.625 70.625C79.0902 58.1644 79.0894 37.8394 66.625 25.375ZM36 31.3125V64.6875L25.6562 54.3438L23.3125 52H20H12V44H20H23.3125L25.6562 41.6562L36 31.3125ZM55.3125 36.6875L49.6562 42.3438C52.8166 45.5041 52.8166 50.4959 49.6562 53.6562L55.3125 59.3203C61.5281 53.1047 61.5281 42.9031 55.3125 36.6875Z" fill="#4F4AFF"/>
</svg>

<?xml version="1.0" encoding="utf-8"?>
<!-- Generator: Adobe Illustrator 28.0.0, SVG Export Plug-In . SVG Version: 6.00 Build 0)  -->
<svg version="1.1" id="Layer_1" xmlns="http://www.w3.org/2000/svg" xmlns:xlink="http://www.w3.org/1999/xlink" x="0px" y="0px"
	 viewBox="0 0 96 96" style="enable-background:new 0 0 96 96;" xml:space="preserve">
<style type="text/css">
	.st0{fill:#B3B3B3;}
</style>
<path class="st0" d="M44,12L20,36h-8c-4.4,0-8,3.6-8,8v8c0,4.4,3.6,8,8,8h8l24,24V12z M77.9,14.1l-5.7,5.7
	c15.7,15.7,15.7,40.9,0,56.6l5.7,5.7C96.7,63.2,96.7,32.8,77.9,14.1z M66.6,25.4L61,31c9.4,9.4,9.4,24.5,0,33.9l5.7,5.7
	C79.1,58.2,79.1,37.8,66.6,25.4z M36,31.3v33.4L25.7,54.3L23.3,52H20h-8v-8h8h3.3l2.3-2.3L36,31.3z M55.3,36.7l-5.7,5.7
	c3.2,3.2,3.2,8.2,0,11.3l5.7,5.7C61.5,53.1,61.5,42.9,55.3,36.7z"/>
</svg>
